svgs/sharp-light/swatchbook.svg

<svg xmlns="http://www.w3.org/2000/svg" viewBox="0 0 512 512"><!--! Font Awesome Pro 6.6.0 by @fontawesome - https://fontawesome.com License - https://fontawesome.com/license (Commercial License) Copyright 2024 Fonticons, Inc. --><path d="M0 416c0 53 43 96 96 96l400 0 16 0 0-16 0-160 0-16-16 0-164.3 0L447.3 204.5l11.3-11.3-11.3-11.3L334.2 68.7 322.8 57.4 311.5 68.7 192 188.2 192 16l0-16L176 0 16 0 0 0 0 16 0 416zm480 64l-308.3 0 128-128L480 352l0 128zM413.4 193.1L192 414.5l0-181L322.8 102.6l90.5 90.5zM96 480c-35.3 0-64-28.7-64-64l0-128 128 0 0 128c0 35.3-28.7 64-64 64zM32 256l0-96 128 0 0 96L32 256zm0-128l0-96 128 0 0 96L32 128zM96 440a24 24 0 1 0 0-48 24 24 0 1 0 0 48z"/></svg>

<svg xmlns="http://www.w3.org/2000/svg" viewBox="0 0 512 512"><!--! Font Awesome Pro 6.4.0 by @fontawesome - https://fontawesome.com License - https://fontawesome.com/license (Commercial License) Copyright 2023 Fonticons, Inc. --><path d="M0 416c0 53 43 96 96 96H496h16V496 336 320H496 331.7L447.3 204.5l11.3-11.3-11.3-11.3L334.2 68.7 322.8 57.4 311.5 68.7 192 188.2V16 0H176 16 0V16 416zm480 64H171.7l128-128H480V480zM413.4 193.1L192 414.5v-181L322.8 102.6l90.5 90.5zM96 480c-35.3 0-64-28.7-64-64l0-128H160V416c0 35.3-28.7 64-64 64zM32 256V160H160v96H32zm0-128V32l128 0v96H32zM96 440a24 24 0 1 0 0-48 24 24 0 1 0 0 48z"/></svg>
